usr/share/icons/biglinux-icons-material/scalable/mimetypes/application-postscript.svg

<svg width="24" height="24" viewBox="0 0 24 24" fill="none" xmlns="http://www.w3.org/2000/svg">
<rect x="1" y="1" width="22" height="22" rx="6.6" fill="url(#paint0_radial_21_37)"/>
<path fill-rule="evenodd" clip-rule="evenodd" d="M13.0121 3.5L6.40787 11.3216C8.12794 11.5974 11.0328 13.7721 10.5946 16.6605C11.4871 14.5185 9.84804 11.9058 8.27404 10.851L14.0347 3.97075C13.7262 3.74357 13.4827 3.62982 13.0121 3.5ZM10.7904 4.04532C10.5335 4.04619 10.3408 4.08424 10.3509 4.08424L8.24148 6.50203C7.05689 6.56693 5.90477 6.64815 4.78494 6.76173C3.9898 6.84285 3.35695 7.4757 3.24335 8.31953C3.08108 9.79621 3 11.3541 3 12.9606C3 14.5671 3.08108 16.1249 3.24335 17.6178C3.35695 18.5592 3.98982 19.0298 4.78494 19.1756C6.99183 19.5326 10.1887 19.1918 10.1887 16.1575C10.1887 13.3177 5.5315 12.1006 3.94113 12.8795L11.292 4.1007C11.1216 4.0581 10.9445 4.04484 10.7904 4.04532ZM15.6408 6.53435C15.6408 6.53435 11.5033 15.719 11.0974 16.6603C10.4808 18.0558 9.63699 19.0781 8.42003 19.4352C9.49102 19.4839 10.5619 19.5 11.6655 19.5C14.083 19.5 16.3876 19.3864 18.5457 19.1755C19.3406 19.0944 19.99 18.4453 20.0873 17.6177C20.2661 16.1248 20.3469 14.567 20.3469 12.9604C20.3469 11.3539 20.266 9.7961 20.0873 8.31938C19.99 7.47557 19.3409 6.84272 18.5457 6.76157C17.6046 6.66421 16.6309 6.58304 15.6408 6.53435Z" fill="white"/>
<defs>
<radialGradient id="paint0_radial_21_37" cx="0" cy="0" r="1" gradientUnits="userSpaceOnUse" gradientTransform="translate(17.5 1) rotate(116.565) scale(24.5967)">
<stop stop-color="#F27181"/>
<stop offset="1" stop-color="#D42138"/>
</radialGradient>
</defs>
</svg>

<svg xmlns="http://www.w3.org/2000/svg" width="24" height="24" fill="none"><rect width="22" height="22" x="1" y="1" fill="url(#a)" rx="6.6"/><path fill="#fff" fill-rule="evenodd" d="m13.012 3.5-6.604 7.822c1.72.275 4.625 2.45 4.187 5.338.892-2.142-.747-4.754-2.321-5.809l5.76-6.88c-.308-.227-.551-.341-1.022-.471Zm-2.222.545c-.256.001-.45.04-.44.04L8.242 6.501a75.005 75.005 0 0 0-3.456.26c-.795.08-1.428.714-1.542 1.558A42.656 42.656 0 0 0 3 12.96c0 1.607.081 3.165.243 4.658.114.941.747 1.412 1.542 1.558 2.207.357 5.404.016 5.404-3.018 0-2.84-4.657-4.057-6.248-3.279l7.351-8.778a2.075 2.075 0 0 0-.502-.056Zm4.85 2.49s-4.137 9.184-4.543 10.125c-.616 1.396-1.46 2.418-2.677 2.775 1.071.049 2.142.065 3.245.065 2.418 0 4.723-.114 6.88-.325.796-.08 1.445-.73 1.542-1.557.18-1.493.26-3.051.26-4.658 0-1.606-.081-3.164-.26-4.64-.097-.844-.746-1.477-1.541-1.558a54.07 54.07 0 0 0-2.905-.228Z" clip-rule="evenodd"/><defs><radialGradient id="a" cx="0" cy="0" r="1" gradientTransform="rotate(116.565 8.441 5.908) scale(24.5967)" gradientUnits="userSpaceOnUse"><stop stop-color="#F27181"/><stop offset="1" stop-color="#D42138"/></radialGradient></defs></svg>
